assets/images/sections/about/google_services_implementation.svg

<svg width="39" height="39" viewBox="0 0 39 39" version="1.1" xmlns="http://www.w3.org/2000/svg" xmlns:xlink="http://www.w3.org/1999/xlink">
<title>route</title>
<desc>Created using Figma</desc>
<g id="Canvas" transform="translate(6 4372)">
<g id="route">
<g id="Shape">
<use xlink:href="#path0_fill" transform="translate(-5.67045 -4355.75)" fill="#ED93A3"/>
</g>
<g id="Shape">
<use xlink:href="#path1_fill" transform="translate(19.7878 -4372)" fill="#ED93A3"/>
</g>
<g id="Shape">
<use xlink:href="#path2_fill" transform="translate(26.8458 -4336.58)" fill="#ED93A3"/>
</g>
<g id="Shape">
<use xlink:href="#path3_fill" transform="translate(13.1012 -4352.04)" fill="#ED93A3"/>
</g>
<g id="Shape">
<use xlink:href="#path4_fill" transform="translate(12.6025 -4357.68)" fill="#ED93A3"/>
</g>
<g id="Shape">
<use xlink:href="#path5_fill" transform="translate(3.7916 -4334.3)" fill="#ED93A3"/>
</g>
<g id="Shape">
<use xlink:href="#path6_fill" transform="translate(16.6058 -4346)" fill="#ED93A3"/>
</g>
<g id="Shape">
<use xlink:href="#path7_fill" transform="translate(16.4205 -4357.7)" fill="#ED93A3"/>
</g>
<g id="Shape">
<use xlink:href="#path8_fill" transform="translate(24.4057 -4346)" fill="#ED93A3"/>
</g>
<g id="Shape">
<use xlink:href="#path9_fill" transform="translate(24.7782 -4351.85)" fill="#ED93A3"/>
</g>
<g id="Shape">
<use xlink:href="#path10_fill" transform="translate(20.5057 -4346)" fill="#ED93A3"/>
</g>
<g id="Shape">
<use xlink:href="#path11_fill" transform="translate(20.3204 -4357.7)" fill="#ED93A3"/>
</g>
<g id="Shape">
<use xlink:href="#path8_fill" transform="translate(16.9781 -4351.85)" fill="#ED93A3"/>
</g>
<g id="Shape">
<use xlink:href="#path9_fill" transform="translate(20.8782 -4351.85)" fill="#ED93A3"/>
</g>
<g id="Shape">
<use xlink:href="#path12_fill" transform="translate(31.2518 -4349.39)" fill="#ED93A3"/>
</g>
<g id="Shape">
<use xlink:href="#path5_fill" transform="translate(19.3916 -4334.3)" fill="#ED93A3"/>
</g>
<g id="Shape">
<use xlink:href="#path5_fill" transform="translate(15.4916 -4334.3)" fill="#ED93A3"/>
</g>
<g id="Shape">
<use xlink:href="#path9_fill" transform="translate(21.9923 -4340.15)" fill="#ED93A3"/>
</g>
<g id="Shape">
<use xlink:href="#path9_fill" transform="translate(18.0923 -4340.15)" fill="#ED93A3"/>
</g>
<g id="Shape">
<use xlink:href="#path13_fill" transform="translate(23.291 -4334.3)" fill="#ED93A3"/>
</g>
<g id="Shape">
<use xlink:href="#path14_fill" transform="translate(25.8443 -4339.85)" fill="#ED93A3"/>
</g>
<g id="Shape">
<use xlink:href="#path15_fill" transform="translate(28.3057 -4346.23)" fill="#ED93A3"/>
</g>
<g id="Shape">
<use xlink:href="#path16_fill" transform="translate(11.2204 -4355.14)" fill="#ED93A3"/>
</g>
<g id="Shape">
<use xlink:href="#path5_fill" transform="translate(7.6916 -4334.3)" fill="#ED93A3"/>
</g>
<g id="Shape">
<use xlink:href="#path17_fill" transform="translate(14.5043 -4341.2)" fill="#ED93A3"/>
</g>
<g id="Shape">
<use xlink:href="#path18_fill" transform="translate(28.6781 -4351.84)" fill="#ED93A3"/>
</g>
<g id="Shape">
<use xlink:href="#path5_fill" transform="translate(11.5916 -4334.3)" fill="#ED93A3"/>
</g>
<g id="Shape">
<use xlink:href="#path19_fill" transform="translate(13.8717 -4344.81)" fill="#ED93A3"/>
</g>
<g id="Shape">
<use xlink:href="#path20_fill" transform="translate(22.2705 -4369.4)" fill="#ED93A3"/>
</g>
<g id="Shape">
<use xlink:href="#path21_fill" transform="translate(-1.77955 -4351.85)" fill="#ED93A3"/>
</g>
</g>
</g>
<defs>
<path id="path0_fill" fill-rule="evenodd" d="M 7.7909 0C 9.88975 0 11.8579 0.917969 13.3341 2.58496C 16.3319 5.97217 16.3319 11.4824 13.3335 14.8696L 7.7909 21.1309L 2.24835 14.8696C -0.74945 11.4824 -0.74945 5.97217 2.24835 2.58496C 3.72385 0.917969 5.69205 0 7.7909 0ZM 7.79155 19.1689L 12.3604 14.0073C 14.9377 11.0952 14.9376 6.35791 12.3597 3.44678C 11.1351 2.06201 9.51145 1.2998 7.7909 1.2998C 6.07035 1.2998 4.4473 2.06201 3.22205 3.44678C 0.64415 6.35791 0.64415 11.0962 3.22205 14.0073L 7.79155 19.1689Z"/>
<path id="path1_fill" fill-rule="evenodd" d="M 10.0994 11.1938L 5.89778 15.9297L 1.69552 11.1938C -0.565174 8.64551 -0.565174 4.50146 1.69552 1.95312C 2.81352 0.693359 4.30593 0 5.89713 0C 7.48898 0 8.98137 0.693359 10.0994 1.95312C 12.3601 4.50146 12.3601 8.64551 10.0994 11.1938ZM 5.89712 1.2998C 4.68227 1.2998 3.53568 1.83789 2.66792 2.81641C 0.829723 4.8877 0.829723 8.25879 2.66792 10.3301L 5.89777 13.9707L 9.12697 10.3301C 10.9652 8.25879 10.9652 4.8877 9.12697 2.81641C 8.25922 1.83789 7.11263 1.2998 5.89712 1.2998Z"/>
<path id="path2_fill" d="M 1.34683 0.0159572C 0.996482 -0.0626928 0.648732 0.157007 0.570082 0.507357C 0.495332 0.838857 0.350382 1.14371 0.139132 1.41216C -0.0825176 1.69426 -0.0344176 2.10311 0.248332 2.32476C 0.367932 2.41836 0.508982 2.46386 0.649382 2.46386C 0.842432 2.46386 1.03288 2.37871 1.16093 2.21556C 1.48853 1.79956 1.72253 1.30816 1.83823 0.793357C 1.91688 0.442357 1.69718 0.0946072 1.34683 0.0159572Z"/>
<path id="path3_fill" d="M 1.6955 0.191867C 1.41405 0.191217 1.1404 0.141167 0.881703 0.0423666C 0.548903 -0.0843834 0.171253 0.0826666 0.0425534 0.418067C -0.0848466 0.753467 0.0835034 1.12917 0.418253 1.25722C 0.825153 1.41192 1.2535 1.49122 1.6942 1.49187L 1.92625 1.49187C 2.2857 1.49187 2.57625 1.20132 2.57625 0.841867C 2.57625 0.482417 2.2857 0.191867 1.92625 0.191867L 1.6955 0.191867L 1.6955 0.191867Z"/>
<path id="path4_fill" d="M 0.651102 1.72141C 0.768752 1.72141 0.887052 1.68956 0.994302 1.62326C 1.28225 1.44386 1.60075 1.33401 1.9394 1.29631C 2.29625 1.25666 2.55365 0.93556 2.51465 0.57871C 2.47565 0.22186 2.1565 -0.0329399 1.79705 0.00346015C 1.26275 0.0626101 0.760952 0.23551 0.305952 0.51956C 0.0011023 0.70936 -0.0911977 1.11041 0.0986023 1.41526C 0.222102 1.61286 0.434002 1.72141 0.651102 1.72141Z"/>
<path id="path5_fill" d="M 1.95 0L 0.65 0C 0.29055 0 0 0.29055 0 0.65C 0 1.00945 0.29055 1.3 0.65 1.3L 1.95 1.3C 2.30945 1.3 2.6 1.00945 2.6 0.65C 2.6 0.29055 2.3088 0 1.95 0Z"/>
<path id="path6_fill" d="M 0.789627 0C 0.733727 0 0.678477 0.0013 0.623227 0.0039C 0.264427 0.0182 -0.0137725 0.3211 0.00052747 0.6799C 0.0141775 1.0296 0.302777 1.30325 0.649227 1.30325C 0.658328 1.30325 0.667427 1.30325 0.676527 1.3026L 1.94988 1.3C 2.30933 1.3 2.59988 1.00945 2.59988 0.65C 2.59988 0.29055 2.30933 0 1.94988 0L 0.789627 0Z"/>
<path id="path7_fill" d="M 0.65 1.3L 1.95 1.3C 2.30945 1.3 2.6 1.00945 2.6 0.65C 2.6 0.29055 2.30945 0 1.95 0L 0.65 0C 0.29055 0 0 0.29055 0 0.65C 0 1.00945 0.29055 1.3 0.65 1.3Z"/>
<path id="path8_fill" d="M 0.65 0C 0.29055 0 0 0.29055 0 0.65C 0 1.00945 0.29055 1.3 0.65 1.3L 1.95 1.3C 2.30945 1.3 2.6 1.00945 2.6 0.65C 2.6 0.29055 2.30945 0 1.95 0L 0.65 0Z"/>
<path id="path9_fill" d="M 2.6 0.65C 2.6 0.29055 2.30945 0 1.95 0L 0.65 0C 0.29055 0 0 0.29055 0 0.65C 0 1.00945 0.29055 1.3 0.65 1.3L 1.95 1.3C 2.3088 1.3 2.6 1.00945 2.6 0.65Z"/>
<path id="path10_fill" d="M 0.65 1.3L 1.95 1.3C 2.30945 1.3 2.6 1.00945 2.6 0.65C 2.6 0.29055 2.30945 0 1.95 0L 0.65 0C 0.29055 0 0 0.29055 0 0.65C 0 1.00945 0.2912 1.3 0.65 1.3Z"/>
<path id="path11_fill" d="M 1.95 1.3C 2.30945 1.3 2.6 1.00945 2.6 0.65C 2.6 0.29055 2.30945 0 1.95 0L 0.65 0C 0.29055 0 0 0.29055 0 0.65C 0 1.00945 0.29055 1.3 0.65 1.3L 1.95 1.3Z"/>
<path id="path12_fill" d="M 1.3751 0.54756C 1.3179 0.19266 0.983147 -0.0497899 0.630197 0.0087101C 0.275297 0.0652601 0.0341473 0.39936 0.0913473 0.75361C 0.109547 0.86931 0.119947 0.98696 0.118647 1.11241C 0.118647 1.33081 0.0874473 1.54661 0.0263473 1.75461C -0.0744027 2.09911 0.122547 2.46051 0.467697 2.56126C 0.528797 2.57881 0.589897 2.58726 0.650347 2.58726C 0.931797 2.58726 1.19115 2.40396 1.27435 2.11991C 1.3699 1.79296 1.41865 1.45431 1.41865 1.11696C 1.41995 0.92976 1.40565 0.73801 1.3751 0.54756Z"/>
<path id="path13_fill" d="M 1.9045 0L 0.65 0C 0.29055 0 0 0.29055 0 0.65C 0 1.00945 0.29055 1.3 0.65 1.3L 1.93115 1.29935L 1.95 0.64935L 1.95 1.29935C 2.30945 1.29935 2.57725 1.0088 2.57725 0.64935C 2.57725 0.29055 2.26395 0 1.9045 0Z"/>
<path id="path14_fill" d="M 1.65087 2.1133C 1.79127 2.1133 1.93362 2.0678 2.05192 1.9742C 2.33467 1.7519 2.38277 1.34305 2.16112 1.0616C 1.83417 0.646252 1.41232 0.303052 0.939767 0.0684018C 0.616717 -0.0921482 0.228017 0.0398018 0.0681169 0.360902C -0.0917831 0.682652 0.0395169 1.07265 0.360617 1.23255C 0.661567 1.3814 0.930667 1.60045 1.13867 1.86565C 1.26737 2.02815 1.45782 2.1133 1.65087 2.1133Z"/>
<path id="path15_fill" d="M 1.66855 0.0508751C 1.3897 0.167875 1.0946 0.227025 0.78975 0.227025L 0.65 0.227025C 0.29055 0.227025 0 0.517575 0 0.877025C 0 1.23648 0.29055 1.52703 0.65 1.52703L 0.78975 1.52703C 1.26815 1.52703 1.7329 1.43343 2.171 1.24948C 2.5025 1.11038 2.65785 0.729475 2.51875 0.398625C 2.3803 0.0677751 1.9968 -0.0882249 1.66855 0.0508751Z"/>
<path id="path16_fill" d="M 0.9984 2.55045C 1.339 2.438 1.5249 2.07075 1.4131 1.7295C 1.33835 1.50135 1.3 1.2628 1.3 1.0223C 1.30065 0.924146 1.3065 0.825996 1.3182 0.730446C 1.36305 0.374246 1.11085 0.0485957 0.75465 0.00439572C 0.3874 -0.0365543 0.0728 0.213046 0.0286 0.567946C 0.0104 0.714846 0.00065 0.864346 0 1.01905C 0 1.40125 0.0598 1.77695 0.17745 2.13575C 0.2678 2.4094 0.52195 2.58295 0.79495 2.58295C 0.86255 2.58295 0.93145 2.5732 0.9984 2.55045Z"/>
<path id="path17_fill" d="M 1.67498 2.08123C 1.92198 2.08123 2.15728 1.94018 2.26648 1.70163C 2.41533 1.37468 2.27233 0.989227 1.94603 0.840377C 1.64118 0.700627 1.36493 0.490677 1.14783 0.231977C 0.916427 -0.0429731 0.506927 -0.0787231 0.231977 0.152677C -0.0429731 0.383427 -0.0787231 0.793577 0.152677 1.06853C 0.493277 1.47348 0.926177 1.80368 1.40523 2.02208C 1.49298 2.06173 1.58463 2.08123 1.67498 2.08123Z"/>
<path id="path18_fill" d="M 2.20681 0.471063C 1.74271 0.201963 1.23571 0.044013 0.700758 0.00176296C 0.343908 -0.024237 0.0299577 0.240313 0.00200766 0.599113C -0.0259423 0.957263 0.241208 1.26991 0.599358 1.29786C 0.938658 1.32451 1.26041 1.42461 1.55486 1.59556C 1.65756 1.65536 1.77001 1.68331 1.88051 1.68331C 2.10476 1.68331 2.32316 1.56696 2.44341 1.35961C 2.62346 1.04956 2.51751 0.651763 2.20681 0.471063Z"/>
<path id="path19_fill" d="M 1.28901 1.95326C 1.35336 1.61916 1.48856 1.31041 1.69136 1.03481C 1.90391 0.746212 1.84216 0.339312 1.55291 0.126112C 1.26366 -0.0857882 0.857407 -0.0246882 0.644207 0.264562C 0.326357 0.697462 0.113157 1.18301 0.0117575 1.70886C -0.0558425 2.06116 0.174907 2.40176 0.527857 2.47001C 0.568807 2.47781 0.610407 2.48171 0.650707 2.48171C 0.956207 2.48041 1.22856 2.26396 1.28901 1.95326Z"/>
<path id="path20_fill" fill-rule="evenodd" d="M 7.15 3.5752C 7.15 5.5459 5.5458 7.1499 3.575 7.1499C 1.6042 7.1499 0 5.5459 0 3.5752C 0 1.604 1.6042 0 3.575 0C 5.5458 0 7.15 1.604 7.15 3.5752ZM 5.85 3.57471C 5.85 2.32031 4.8295 1.2998 3.575 1.2998C 2.32115 1.2998 1.3 2.32031 1.3 3.57471C 1.3 4.8291 2.3205 5.84961 3.575 5.84961C 4.8295 5.84961 5.85 4.8291 5.85 3.57471Z"/>
<path id="path21_fill" fill-rule="evenodd" d="M 0 3.8999C 0 1.74902 1.74915 0 3.9 0C 6.05085 0 7.8 1.74902 7.8 3.8999C 7.8 6.05078 6.05085 7.7998 3.9 7.7998C 1.74915 7.7998 0 6.05078 0 3.8999ZM 1.3 3.8999C 1.3 5.3335 2.4661 6.5 3.9 6.5C 5.3339 6.5 6.5 5.3335 6.5 3.8999C 6.5 2.46582 5.3339 1.2998 3.9 1.2998C 2.4661 1.2998 1.3 2.46582 1.3 3.8999Z"/>
</defs>
</svg>

<svg xmlns="http://www.w3.org/2000/svg" xmlns:xlink="http://www.w3.org/1999/xlink" width="39" height="39"><g fill="#ED93A3" transform="translate(6 4372)"><use xlink:href="#A" x="-5.67" y="-4355.75"/><use xlink:href="#B" x="19.788" y="-4372"/><use xlink:href="#C" x="26.846" y="-4336.58"/><use xlink:href="#D" x="13.101" y="-4352.04"/><use xlink:href="#E" x="12.602" y="-4357.68"/><use xlink:href="#F" x="3.792" y="-4334.3"/><use xlink:href="#G" x="16.606" y="-4346"/><use xlink:href="#H" x="16.42" y="-4357.7"/><use xlink:href="#I" x="24.406" y="-4346"/><use xlink:href="#J" x="24.778" y="-4351.85"/><use xlink:href="#K" x="20.506" y="-4346"/><use xlink:href="#L" x="20.32" y="-4357.7"/><use xlink:href="#I" x="16.978" y="-4351.85"/><use xlink:href="#J" x="20.878" y="-4351.85"/><use xlink:href="#M" x="31.252" y="-4349.39"/><use xlink:href="#F" x="19.392" y="-4334.3"/><use xlink:href="#F" x="15.492" y="-4334.3"/><use xlink:href="#J" x="21.992" y="-4340.15"/><use xlink:href="#J" x="18.092" y="-4340.15"/><use xlink:href="#N" x="23.291" y="-4334.3"/><use xlink:href="#O" x="25.844" y="-4339.85"/><use xlink:href="#P" x="28.306" y="-4346.23"/><use xlink:href="#Q" x="11.22" y="-4355.14"/><use xlink:href="#F" x="7.692" y="-4334.3"/><use xlink:href="#R" x="14.504" y="-4341.2"/><use xlink:href="#S" x="28.678" y="-4351.84"/><use xlink:href="#F" x="11.592" y="-4334.3"/><use xlink:href="#T" x="13.872" y="-4344.81"/><use xlink:href="#U" x="22.271" y="-4369.4"/><use xlink:href="#V" x="-1.78" y="-4351.85"/></g><defs><path id="A" d="M7.79 0c2.1 0 4.067.918 5.543 2.585 2.998 3.387 2.998 8.897-.001 12.285L7.79 21.13l-5.543-6.26c-2.998-3.387-2.998-8.897 0-12.285C3.724.918 5.692 0 7.79 0zm.001 19.17l4.57-5.162c2.577-2.912 2.577-7.65-.001-10.56C11.135 2.062 9.51 1.3 7.79 1.3s-3.344.762-4.57 2.147c-2.578 2.91-2.578 7.65 0 10.56l4.57 5.162z" fill-rule="evenodd"/><path id="B" d="M10.1 11.194L5.898 15.93l-4.202-4.736c-2.26-2.548-2.26-6.692 0-9.24C2.814.693 4.306 0 5.897 0S8.98.693 10.1 1.953c2.26 2.548 2.26 6.692 0 9.24zM5.897 1.3c-1.215 0-2.36.538-3.23 1.517C.83 4.888.83 8.26 2.668 10.33l3.23 3.64 3.23-3.64c1.838-2.07 1.838-5.442 0-7.514C8.26 1.838 7.113 1.3 5.897 1.3z" fill-rule="evenodd"/><path id="C" d="M1.347.016A.65.65 0 0 0 .57.507c-.075.332-.22.636-.43.905a.65.65 0 0 0 .109.913.65.65 0 0 0 .401.139.65.65 0 0 0 .512-.248A3.58 3.58 0 0 0 1.838.793.65.65 0 0 0 1.347.016z"/><path id="D" d="M1.696.192C1.414.19 1.14.14.882.042.55-.084.17.083.043.418a.65.65 0 0 0 .376.839 3.59 3.59 0 0 0 1.276.235h.232a.65.65 0 0 0 .65-.65.65.65 0 0 0-.65-.65h-.23z"/><path id="E" d="M.65 1.72a.65.65 0 0 0 .343-.098c.288-.18.606-.29.945-.327a.65.65 0 0 0 .575-.718.65.65 0 0 0-.718-.575C1.263.063.76.236.306.52a.65.65 0 0 0 .345 1.202z"/><path id="F" d="M1.95 0H.65A.65.65 0 0 0 0 .65a.65.65 0 0 0 .65.65h1.3A.65.65 0 0 0 2.6.65.65.65 0 0 0 1.95 0z"/><path id="G" d="M.8 0L.623.004A.65.65 0 0 0 .001.68a.65.65 0 0 0 .649.623H.677L1.95 1.3A.65.65 0 0 0 2.6.65.65.65 0 0 0 1.95 0H.8z"/><path id="H" d="M.65 1.3h1.3A.65.65 0 0 0 2.6.65.65.65 0 0 0 1.95 0H.65A.65.65 0 0 0 0 .65a.65.65 0 0 0 .65.65z"/><path id="I" d="M.65 0A.65.65 0 0 0 0 .65a.65.65 0 0 0 .65.65h1.3A.65.65 0 0 0 2.6.65.65.65 0 0 0 1.95 0H.65z"/><path id="J" d="M2.6.65A.65.65 0 0 0 1.95 0H.65A.65.65 0 0 0 0 .65a.65.65 0 0 0 .65.65h1.3A.65.65 0 0 0 2.6.65z"/><path id="K" d="M.65 1.3h1.3A.65.65 0 0 0 2.6.65.65.65 0 0 0 1.95 0H.65A.65.65 0 0 0 0 .65a.65.65 0 0 0 .65.65z"/><path id="L" d="M1.95 1.3A.65.65 0 0 0 2.6.65.65.65 0 0 0 1.95 0H.65A.65.65 0 0 0 0 .65a.65.65 0 0 0 .65.65h1.3z"/><path id="M" d="M1.375.548A.65.65 0 0 0 .63.009.65.65 0 0 0 .091.754a2.14 2.14 0 0 1 .027.359c0 .218-.03.434-.092.642a.65.65 0 0 0 .441.807.66.66 0 0 0 .183.026.65.65 0 0 0 .624-.467 3.58 3.58 0 0 0 .144-1.003c.001-.187-.013-.38-.044-.57z"/><path id="N" d="M1.905 0H.65A.65.65 0 0 0 0 .65a.65.65 0 0 0 .65.65H1.93l.02-.65v.65a.63.63 0 0 0 .627-.65A.67.67 0 0 0 1.905 0z"/><path id="O" d="M1.65 2.113c.14 0 .283-.046.4-.14a.65.65 0 0 0 .109-.913C1.834.646 1.412.303.94.068a.65.65 0 0 0-.872.293.65.65 0 0 0 .293.872 2.28 2.28 0 0 1 .778.633.65.65 0 0 0 .512.248z"/><path id="P" d="M1.67.05C1.4.168 1.095.227.8.227H.65a.65.65 0 0 0-.65.65.65.65 0 0 0 .65.65H.8a3.55 3.55 0 0 0 1.381-.278.65.65 0 0 0 .348-.851.65.65 0 0 0-.85-.348z"/><path id="Q" d="M.998 2.55a.65.65 0 0 0 .415-.821 2.27 2.27 0 0 1-.113-.707A2.55 2.55 0 0 1 1.318.73.65.65 0 0 0 .755.004C.387-.037.073.213.03.568.01.715.001.864 0 1.02a3.58 3.58 0 0 0 .177 1.117.65.65 0 0 0 .618.447.63.63 0 0 0 .203-.032z"/><path id="R" d="M1.675 2.08A.65.65 0 0 0 1.946.84a2.3 2.3 0 0 1-.798-.608.65.65 0 0 0-.916-.079.65.65 0 0 0-.079.916 3.6 3.6 0 0 0 1.253.954c.088.04.18.06.27.06z"/><path id="S" d="M2.207.47C1.743.202 1.236.044.7.002a.65.65 0 0 0-.699.597.65.65 0 0 0 .597.699 2.24 2.24 0 0 1 .956.298c.103.06.215.088.326.088A.65.65 0 0 0 2.207.471z"/><path id="T" d="M1.29 1.953a2.26 2.26 0 0 1 .402-.918.65.65 0 0 0-.138-.909.65.65 0 0 0-.909.138 3.56 3.56 0 0 0-.632 1.444.65.65 0 0 0 .516.761.66.66 0 0 0 .123.012c.306-.001.578-.218.638-.528z"/><path id="U" d="M7.15 3.575A3.58 3.58 0 0 1 3.575 7.15 3.58 3.58 0 0 1 0 3.575 3.58 3.58 0 0 1 3.575 0 3.58 3.58 0 0 1 7.15 3.575zm-1.3 0A2.28 2.28 0 0 0 3.575 1.3 2.28 2.28 0 0 0 1.3 3.575 2.28 2.28 0 0 0 3.575 5.85 2.28 2.28 0 0 0 5.85 3.575z" fill-rule="evenodd"/><path id="V" d="M0 3.9C0 1.75 1.75 0 3.9 0s3.9 1.75 3.9 3.9-1.75 3.9-3.9 3.9S0 6.05 0 3.9zm1.3 0c0 1.434 1.166 2.6 2.6 2.6s2.6-1.166 2.6-2.6-1.166-2.6-2.6-2.6-2.6 1.166-2.6 2.6z" fill-rule="evenodd"/></defs></svg>
